svgs/duotone/glasses.svg

<svg xmlns="http://www.w3.org/2000/svg" viewBox="0 0 576 512"><!--! Font Awesome Pro 6.0.0-alpha3 by @fontawesome - https://fontawesome.com License - https://fontawesome.com/license (Commercial License) --><defs><style>.fa-secondary{opacity:.4}</style></defs><path class="fa-primary" d="M574.1 280.4l-45.38-181.8c-5.875-23.63-21.62-44-43-55.75c-21.5-11.75-47-14.13-70.25-6.375l-15.25 5.125c-8.375 2.75-12.88 11.88-10 20.25l5 15.13c2.75 8.375 11.88 12.88 20.25 10.13l13.12-4.375c10.88-3.625 23-3.625 33.25 1.75c10.25 5.375 17.5 14.5 20.38 25.75l38.38 153.9c-22.12-6.875-49.75-12.5-81.13-12.5c-34.88 0-73.1 7-114.9 26.75H251.4C210.5 258.6 171.4 251.6 136.5 251.6c-31.38 0-58.1 5.625-81.12 12.5l38.38-153.9C96.63 98.99 103.9 89.87 114.3 84.49c10.12-5.375 22.25-5.375 33.13-1.75l13.12 4.375c8.375 2.75 17.5-1.75 20.25-10.13l5-15.13c2.875-8.375-1.625-17.5-10.13-20.25l-15.25-5.125C137.3 28.74 111.6 31.12 90.25 42.87s-37.13 32.13-43 55.75L1.875 280.4C.6251 285.4 .0001 290.6 .0001 295.9v70.25C.0001 428.1 51.63 480 115.3 480h37.13c60.25 0 110.4-46 114.9-105.4l2.875-38.63h35.75l2.875 38.63C313.3 433.1 363.4 480 423.6 480h37.13c63.62 0 115.2-51 115.2-113.9V295.9C576 290.6 575.4 285.5 574.1 280.4zM222.1 370.8c-2.551 33.15-31.09 58.98-65.04 58.98H109.7c-36.03 0-65.36-28.53-65.36-63.6V318.4c23.11-8.289 55.31-16.58 92.61-16.58c30.45 0 60.25 5.578 89.11 16.58L222.1 370.8zM531.6 366.2c0 35.07-29.33 63.6-65.36 63.6h-47.34c-33.95 0-62.49-25.82-65.04-58.98l-3.984-52.45c28.85-11 58.82-16.58 89.27-16.58c36.98 0 69.34 8.289 92.45 16.58V366.2z"/><path class="fa-secondary" d="M222.1 370.8c-2.551 33.15-31.09 58.98-65.04 58.98H109.7c-36.03 0-65.36-28.53-65.36-63.6V318.4c23.11-8.289 55.31-16.58 92.61-16.58c30.45 0 60.25 5.578 89.11 16.58L222.1 370.8zM531.6 366.2c0 35.07-29.33 63.6-65.36 63.6h-47.34c-33.95 0-62.49-25.82-65.04-58.98l-3.984-52.45c28.85-11 58.82-16.58 89.27-16.58c36.98 0 69.34 8.289 92.45 16.58V366.2z"/></svg>

<svg xmlns="http://www.w3.org/2000/svg" viewBox="0 0 576 512"><!-- Font Awesome Pro 6.0.0-alpha2 by @fontawesome - https://fontawesome.com License - https://fontawesome.com/license (Commercial License) --><defs><style>.fa-secondary{opacity:.4}</style></defs><path d="M221.734 370.834C219.184 403.987 190.648 429.812 156.695 429.812H109.355C73.328 429.812 44 401.28 44 366.209V318.388C67.113 310.099 99.312 301.809 136.613 301.809C167.059 301.809 196.867 307.388 225.719 318.388L221.734 370.834ZM531.219 366.209C531.219 401.28 501.891 429.812 465.863 429.812H418.523C384.57 429.812 356.035 403.987 353.484 370.834L349.5 318.388C378.352 307.388 408.32 301.809 438.766 301.809C475.746 301.809 508.105 310.099 531.219 318.388V366.209Z" class="fa-secondary"/><path d="M574.125 280.371L528.75 98.618C522.875 74.993 507.125 54.617 485.75 42.867C464.25 31.117 438.75 28.742 415.5 36.492L400.25 41.617C391.875 44.367 387.375 53.492 390.25 61.868L395.25 76.993C398 85.368 407.125 89.868 415.5 87.118L428.625 82.743C439.5 79.118 451.625 79.118 461.875 84.493C472.125 89.868 479.375 98.993 482.25 110.243L520.625 264.121C498.5 257.246 470.875 251.621 439.5 251.621C404.625 251.621 365.5 258.621 324.625 278.371H251.375C210.5 258.621 171.375 251.621 136.5 251.621C105.125 251.621 77.5 257.246 55.375 264.121L93.75 110.243C96.625 98.993 103.875 89.868 114.25 84.493C124.375 79.118 136.5 79.118 147.375 82.743L160.5 87.118C168.875 89.868 178 85.368 180.75 76.993L185.75 61.868C188.625 53.492 184.125 44.367 175.625 41.617L160.375 36.492C137.25 28.742 111.625 31.117 90.25 42.867S53.125 74.993 47.25 98.618L1.875 280.371C0.625 285.372 0 290.622 0 295.872V366.123C0 428.999 51.625 480 115.25 480H152.375C212.625 480 262.75 433.999 267.25 374.623L270.125 335.997H305.875L308.75 374.623C313.25 433.999 363.375 480 423.625 480H460.75C524.375 480 576 428.999 576 366.123V295.872C576 290.622 575.375 285.497 574.125 280.371ZM222.125 370.834C219.574 403.987 191.039 429.812 157.086 429.812H109.746C73.719 429.812 44.391 401.28 44.391 366.209V318.388C67.504 310.099 99.703 301.809 137.004 301.809C167.449 301.809 197.258 307.388 226.109 318.388L222.125 370.834ZM531.609 366.209C531.609 401.28 502.281 429.812 466.254 429.812H418.914C384.961 429.812 356.426 403.987 353.875 370.834L349.891 318.388C378.742 307.388 408.711 301.809 439.156 301.809C476.137 301.809 508.496 310.099 531.609 318.388V366.209Z" class="fa-primary"/></svg>
